X: 34547
T: Ring Around The Moon, The
R: reel
M: 4/4
K: Gmajor
|:B2 BA G2 GE|DGBG DGBd|eged edBd|e2 dg edBA|
ABBA G3E|DGBG DGBd|e3d efga|agfg e4:|
|:g3d B2 Bd|g2 fg egdB|eAAG A2Bd|eAAA A2 Bd|
gagd B3d|g2 fg egdB|e2ed efga|agfg e4:|

